X: 16
T:Shanahan's Hornpipe (#322)
M:4/4
L:1/8
S:Prof. P.D. Reidy, manuscript
R:Hornpipe
K:G
D2|GFGA BGBd|gfga bgdB|A^GAB cBce|(3agf (3gfe (3dcB (3cBA|
GFGA BGBd|gfga bgdB|Aedc BGAF|G2 G2 G2:|
|:Bc|dcde d2 ef|gfga bgdB|dcde fgaf|(3agf (3gfe (3dcB (3cBA|
GFGA BGBd|gfga bgdB|Aedc BGAF|G2 G2 G2:||

